X:43
T:Elment a madárka
O: Hertelendfalva
Q: "Szabadon"
L:1/4
K:Eb
C/D/E/F/ | G c |
d/ e  d/c/ | G/ HG3/2 |
d/c/ B A | G F H|
E/F/ (3:2:2 G G2 | C HC z |

